X:1
T:Title
%%score 1 2 3 4
L:1/8
M:2/2
K:C
V:1 treble nm="Part_1"
V:2 treble-8 nm="Part_2"
V:3 treble-8 nm="Part_3"
V:4 bass nm="Part_4"
V:1
 z8 | z8 | E8 | E4 F4 | G8 | G4 A4- | A2 ^G^F G4 | A8 | z4 F4 | F4 F4 | E8 | D4 E4- | E2 D2 D4- | %13
 D2 ^CB, C4 | D8 | z8 | D8 | E8- | E4 E4 | E8 | D8 | F6 E2 | D2 C2 D4 | C8 | z4 C4 | D4 G4- | %26
 G2 F2 F4- | F4 E4 | F3 E D4 | C8 | F4 F2 F2- | F2 E2 E4 | z2 E2 E4 | D2 G4 F2 | D2 E3 D CB, | %35
 A,2 D4 ^C2 | D8 | z4 F4 | E4 C2 D2- | DC C4 B,2 | C8 | D8 | C4 D4 | E4 F4 | D8 | C8 | c8 | A6 GF | %48
 G8 | F8 | E8 | z4 F4- | F2 ED E4 | F3 E D2 CB, | A,6 B,2 | C4 D4- | D2 ^CB, C4 | D8 ||[M:2/2] F8 | %59
 F4 F4- | F4 F4 | E4 EFGA | _B2 A4 GF | E8 | E4 F2 F2 | F2 F2 F4 | D4 z4 | z4 G4 | F8 | z8 | %70
 z4 c4 | c2 c2 c4 | B4 G4 | A4 G4 | F4 z4 | z8 | z8 | G4 G4 | F4 E4- | E4 z2 A2- | A2 G3 F ED | %81
 E2 F2 D2 E2- | ED D4 ^C2 | D4 z4 | D4 D4- | D4 D4 | C4 C2 G2- | GF F4 E2 | F8 | z8 | z8 | z8 | %92
 z8 | F6 F2 | F4 F4 | z4 F4 | F4 F4 | E6 D2 | C2 B,2 A,4- | A,4 B,4 | A,4 D4- | D2 ^CB, C4 | D8 || %103
[M:2/2] E8 | E4 F4 | G8 | G8 | D8 | E4 C2 A,2 | C2 D2 B,4 | A,4 z2 A2- | AGFE F2 E2- | ED D4 ^C2 | %113
 D8 | z8 | z8 | z8 | E4 E4 | D4 G4 | z8 | z2 G3 A Bc | B2 A4 ^G2 | A6 GF | E4 z4 | z8 | D4 E2 E2 | %126
 C6 F2- | FD E2 F4- | F4 z4 | F4 F2 D2- | D2 D2 E4- | E2 E2 E4 | z8 | z8 | z4 F4 | F2 F2 F2 E2- | %136
 ED D4 ^C2 | D4 D4 | D4 D4 | E8 | A4 G2 A2- | A2 GF E4- | E4 z4 | z4 z2 G2- | G2 FE D4 | %145
 C2 c3 BAG | A4 G4 | F4 D2 G2- | GF E3 D D2- | D2 C2 F2 E2- | ED D4 ^C2 | D8 ||[M:2/2] A,4 A,B,CD | %153
 E2 D4 ^C2 | D4 A4- | A2 G2 G4- | G2 FE F4 | G8 | z4 D4 | E8 | z4 E4 | E4 E3 D | E2 F4 ED | C8 | %164
 z4 F4 | F2 F4 F2 | D4 E4 | C8 | D4 E2 G2- | GF F4 E2 | F8 | z8 | F8 | E4 D4 | z8 | D4 E4 | %176
 EDCB, C2 D2- | DCB,A, B,4 | A,4 z4 | F4 F2 F2 | F3 G F2 E2- | ED D4 ^C2 | D8 | z8 | D4 E4 | %185
 E2 E3 DCB, | A,4 z2 c2- | cBAG A4 | D2 G3 F F2- | F2 ED E4 | F8 | z4 F4- | F4 E4 | D2 E3 DCB, | %194
 A,2 E3 F G2- | GFED C3 B, | A,2 D4 ^C2 | D8- | D8 ||[M:2/2] D6 D2 | D4 D4- | D4 D4- | D2 D2 D4 | %203
 C8 | z4 D4- | D2 D2 E4 | E8 | z8 | z8 | z4 z2 A2- | AGFE F2 E2- | ED D4 ^C2 | D8- | D8 | D4 D4 | %215
 E8 | z8 | z4 z2 G2 | G2 G2 A4- | A4 z2 A2- | AGFE F4 | E2 E2 D2 F2- | FE D4 ^C2 | D8 | z8 | z8 | %226
 z4 F4 | D3 E F2 G2 | F2 ED E4- | E4 z4 | z8 | z8 | G4 G2 G2 | G2 G2 A4 | z8 | z4 z2 A2- | %236
 AGFE F2 E2- | E2 D4 ^C2 | D4 F4 | F4 G3 A | _B2 A4 GF | E4 z4 | z4 z4 | z4 F4- | F4 G4 | A4 G4- | %246
 G2 F2 F4- | F2 ED E4 | F8 | z8 | z2 A4 G2 | F2 G4 F2 | E2 F4 E2 | D2 E4 D2 | C2 D4 C2 | %255
 D2 A,2 _B,4 | A,3 B, C2 D2 | C2 D4 ^C2 | D8- | D8 ||[M:2/2] z8 | z8 | z8 | E8 | G4 G4 | A6 GF | %266
 E4 E2 E2 | D4 D4 | G6 FE | E8 | z4 E4 | E8 | E8 | z8 | z8 | C3 D E2 F2- | F2 E2 D4 | E8 | z4 F4 | %279
 F2 F4 F2 | D4 G4 | F2 A3 B c2- | cBAG A2 F2- | F2 E2 F4 | G2 FE D4 | C3 D E2 F2- | FEDC D2 E2- | %287
 ED D4 ^C2 | D8 | z8 | F4 E3 F | GA G3 F F2- | F2 E2 F4 | z8 | z4 E3 F | G2 A4 GF | G8 | %297
 z2 G2 G2 G2 | A3 B c2 B2- | BA A4 ^G2 | A4 E4 | E8 | z8 | z8 | z4 E4 | E6 D2 | C2 B,A, B,4 | A,8 | %308
 z8 | c4 c4 | B2 B2 A4 | z2 A3 GFE | F2 E2 D4 | E4 D4 | C4 D4- | D2 ^CB, C4 | D8- | D8 || %318
[M:2/2] z8 | z8 | E8 | G4 G4 | A8 | F6 F2 | F4 F4 | E8- | E8 | z4 E4- | E4 E4 | E4 F4 | G8- | G8 | %332
 z4 G4 | G8 | z4 G4 | G8 | z4 G3 A | Bc B3 A A2- | A2 ^G2 A4- | A8 | A4 A4- | A2 A2 A4- | A4 z4 | %343
 z8 | z8 | E4 E4- | E4 E4 | E2 D3 C B,A, | B,4 A,4 | F4 F4 | D4 E4- | E4 E4- | E2 E2 E4 | G4 F4 | %354
 E2 F4 ED | C8 | z8 | z8 | E4 E2 F2- | FE D4 ^C2 | D8 | z4 A,4 | C4 D4 | E4 D4 | G4 z2 c2- | %365
 cB A2 G2 A2- | A2 G2 F4- | F2 ED E4 | F4 A4 | c8 | A4 F4 | c3 B AG A2- | AGFE F4 | E4 z2 C2- | %374
 CDEF G2 D2 | E4 z2 E2- | EDCB, A,3 B, | A,2 D4 ^C2 | D8- | D8 ||[M:2/2] z4 D4 | D8 | E8 | F8- | %384
 F8 | A8 | A4 A4 | G8- | G4 A4 | G4 A4- | A2 ^G^F G4 | A8 | z4 F4 | F4 F4 | E4 z2 E2- | %395
 EDCB, A,2 E2- | ED D4 ^C2 | D4 z2 D2 | D2 E2 F3 G | A2 G3 F F2- | F2 E2 F4- | F4 z4 | z8 | z8 | %404
 z8 | z8 | z8 | z2 C2 C2 C2 | D3 E F2 E2- | ED D4 ^C2 | D4 A,4 | C8 | D8 | E4 z2 C2- | %414
 CDEF GF F2- | F2 ED E4 | F8 | z8 | z8 | z4 z2 E2 | E2 E2 C3 D | E2 D3 C B,A, | B,4 A,4 | z4 A4 | %424
 A6 GF | G4 G4 | F4 z2 F2- | FGAB c2 B2- | BA A4 ^G2 | A4 z4 | z8 | z2 c3 B AG | A2 G3 F F2- | %433
 F2 E2 F4 | D4 E2 DC | B,4 A,4 | z2 A3 GFE | F3 G F2 E2- | ED D4 ^C2 | D8- | D8 ||[M:2/2] z8 | z8 | %443
 z8 | z8 | z8 | z8 | E8 | E4 D4 | G8 | G4 G4 | A8- | A8 | A8 | G4 G4 | F3 E F2 E2- | ED D4 ^C2 | %457
 D4 A4 | A4 G4 | F6 ED | E8- | E8 | z4 E4- | E4 D2 E2- | E2 DC B,4 | A,4 F4 | E2 F4 ED | C8- | C8 | %469
 z4 E4 | D2 E4 DC | B,4 z4 | z8 | E4 E2 F2- | FE D4 C2 | D8- | D8 | D4 D4 | E6 F2 | G2 FG A4 | %480
 z4 E4 | A6 G2- | GF F4 E2 | F8 | z8 | z8 | z4 C4 | D4 D4 | C3 D E2 F2- | F2 ED E4 | D8 | z8 | z8 | %493
 z4 E4- | E4 E4 | D4 C2 D2- | DC A,2 B,4 | A,4 C4 | D4 F4 | E8 | D2 E4 DC | B,4 A,4 | A6 G2 | %503
 F2 E2 D2 C2 | D2 A,2 D4- | D2 ^CB, C4 | D8- | D8 |] %508
V:2
 d8 | d4 d4 | G8 | A6 GF | c8 | z4 c2 d2 | e8 | c8 | z4 d4 | d4 A4 | c8 | B4 c4 | B2 A4 G2 | A8- | %14
 A8 | D3 E F2 G2 | A4 B4 | c8 | c8 | B4 B4 | A8 | z8 | D8 | E4 F4 | E6 DC | G4 d4 | c4 A2 B2 | c8 | %28
 A4 _B4 | !fermata!A8 | c4 c2 c2- | c2 c2 c4 | z2 c2 c4 | d8 | B2 c3 d e2 | d2 G2 A4- | %36
 A2 B2 A2 d2- | dc c4 B2 | c2 G2 A4 | G6 F2 | E4 A4 | D8 | E4 F4 | G4 F4 | G8 | E8- | E8 | z8 | %48
 c8 | A6 GF | G4 G4 | F3 G A2 B2 | c8 | A4 d4 | c6 B2 | A4 G4 | A8 | A8 ||[M:2/2] d8 | d4 d4- | %60
 d4 d4 | c4 G4- | G2 FE F4 | G8 | A4 A2 A2 | A2 A2 A4 | B3 c d2 e2- | ed d4 c2 | d4 z2 d2- | %69
 dc_BA B2 A2- | A2 G2 A4- | A4 A4 | d4 c4 | f4 e4 | A3 Bcd _e2- | ed d4 c2 | f4 fedc | %77
 d2 e3 d c2- | c2 B2 c4- | c4 c4 | c4 c4 | c2 A3 B c2- | cB G2 A4- | A4 z4 | z8 | z8 | z8 | z8 | %88
 z4 c4 | c4 d4 | B4 A4 | G2 d3 c c2- | c2 B2 c4 | c6 c2 | c4 c4 | z4 c4 | d4 A4 | c8 | z4 c4- | %99
 c2 BA G4 | F4 _B4 | A8- | A8 ||[M:2/2] c8 | c4 c4 | B8 | c4 G4- | G2 FE F4 | G4 A4- | A2 GF G4 | %110
 A8 | z2 c4 c2 | c2 A4 A2 | F4 z4 | A4 G3 A | Bc B3 A A2- | A2 ^G2 A4 | z8 | D4 E3 F | G2 A4 GF | %120
 E4 z4 | z4 z2 e2- | edcB c2 d2- | d2 c2 d4 | z8 | z4 G4 | A2 A2 F4 | G4 F4 | z4 A4 | A2 A4 A2 | %130
 B6 B2 | c4 z4 | z8 | z8 | c4 d4 | A4 B2 c2- | cB G2 A4- | A4 A4 | A4 B4 | c8 | c4 c4 | c8 | %142
 c4 B2 c2- | c2 BA G4- | G4 G4 | A8 | F4 G4 | A4 F2 G2- | G2 C2 D4 | E4 D2 A2- | A2 GF E4 | D8 || %152
[M:2/2] z8 | z8 | A4 ABcd | e2 d4 c2 | d4 c3 A | B4 c2 G2- | G2 FE F4 | G8 | z4 G4 | G4 G4 | %162
 A4 A4 | A8 | A4 A2 A2- | A2 A2 F4 | FGAB c4 | z2 A3 GFE | D2 F2 C4 | z4 c4- | c2 d2 c2 A2- | %171
 A2 d4 ^c2 | d2 cB A4 | G4 z4 | z4 z4 | z4 z2 c2- | cBAG A2 B2- | BA A4 ^G2 | A8 | z2 c2 c2 c2 | %180
 d4 A2 c2- | cB G2 A4 | z4 A3 B | c2 d3 cBA | B4 c4 | c8 | z4 G4 | c4 cBAG | F2 c4 B2 | c8 | A8 | %191
 d4 c4 | c8 | z2 C3 D E2 | F2 G2 C4 | G4 A3 G | A2 _B2 A4- | A2 F4 ED | A8 ||[M:2/2] A4 A4- | %200
 A2 _B2 B4- | B4 _B4 | _B6 A2 | A8 | z4 A4- | A2 B2 c4 | c4 z2 G2- | GABA/B/ c2 B2- | BA A4 ^G2 | %209
 A4 z4 | z2 A3 B c2- | cB G2 A4 | z2 F4 ED | D4 z2 d2- | d2 c2 A2 B2 | c8 | z2 c2 c2 c2 | d8 | %218
 e4 f4- | f2 ed c2 d2- | d2 c2 A2 B2 | c4 G2 d2- | d2 cB A4 | z4 A4 | A3 B c2 d2- | dcBA B4 | %226
 A4 d4 | z8 | z8 | c4 c2 c2 | c2 c2 f4- | f4 e4- | e2 e2 e2 dc | B4 A4 | z8 | z8 | c8 | A2 B2 A4- | %238
 A4 D4- | D4 E4 | F8 | G4 A3 B | c2 d4 ^c2 | d4 z2 d2- | dcBA B4 | A2 GF E4 | z2 F3 GAB | c8 | %248
 z2 c3 BAG | A2 d4 c2 | d2 B2 c3 B | A2 G2 d4 | B4 c4 | A4 _B4 | G4 A4 | F4 G4 | c3 B A2 G2 | %257
 A2 _B2 A4 | F6 ED | A8 ||[M:2/2] z8 | z8 | A8 | c4 c4 | d8 | e6 d2 | c2 BA G3 A | B2 c4 B2 | c8- | %269
 c8 | z4 G4 | G4 E4 | z2 C3 DEF | GABA c2 B2- | BA A4 ^G2 | A8 | z8 | c4 c2 c2- | c2 c2 A4- | %279
 A4 z2 A2- | A2 GF E4 | A3 B c2 A2- | A2 F3 GAB | c4 z4 | G8 | A4 B2 c2- | cBAG A2 E2 | G4 A4- | %288
 A4 z2 A2- | A2 d3 c c2- | c2 B2 c4 | z8 | z4 z2 A2- | A2 B3 A A2- | A2 ^G2 A4 | z8 | e8 | %297
 e2 e2 e2 e2 | c4 z4 | z4 e4- | e2 d2 c2 BA | G8 | G4 A3 B | c2 d3 c c2- | c2 B2 c4- | c4 z4 | %306
 z4 z4 | z4 F4 | F4 F2 F2 | E6 DC | D2 E2 F4- | F4 z2 A2- | AB c4 B2 | c4 A2 B2- | BA A4 G2 | A8 | %316
 F6 ED | A8 ||[M:2/2] z8 | z8 | c8 | B4 B4 | A8- | A8 | c6 c2 | c4 c4 | c8 | z4 c4- | c4 c4 | c8 | %330
 d8- | d8 | z4 e4 | e8 | z4 e4 | e8- | e8 | z8 | e3 d e2 f2 | e2 f4 ed | c8 | f6 f2 | f4 e4 | %343
 d2 f2 e2 d2- | dc c4 B2 | c8 | z8 | z8 | z4 c4 | c2 d3 c c2- | c2 B2 c4- | c4 c4- | c2 c2 c4 | %353
 d8 | z4 D4 | E6 F2 | G3 A B2 c2- | cB A4 ^G2 | c8 | z4 A4 | A6 A2- | AGFE F4 | EFGABc d2- | %363
 d2 c2 A2 B2 | c8- | c8 | z4 A4 | c8 | A4 F4- | F4 z2 f2- | fe c2 d2 c2 | A4 F3 G | AB c2 A2 c2- | %373
 cB c2 d2 e2- | e2 dc B4 | c3 d e4 | c4 z2 c2- | c2 B2 A3 G | F3 E D4 | A8 ||[M:2/2] z4 A4 | %381
 A4 B4 | c8- | c8 | z4 c4 | c8 | d8 | e8 | z4 e4- | e4 d4 | e8 | c8 | z4 d4 | d4 A4 | c6 BA | %395
 G2 A4 G2 | F2 ED A4 | z2 A3 GFE | F2 E2 D4 | C4 z4 | z4 z2 A2 | A2 A2 A4 | A3 B c2 d2- | %403
 dc c4 B2 | c4 z4 | z8 | z8 | z2 e3 dcB | A4 F2 G2 | F2 _B2 A4 | AGFE F2 D2 | A4 G2 G2- | %412
 G2 FE F4 | G8 | c4 c4 | c8 | z2 c2 c2 c2 | d4 dcBA | G2 d3 c c2- | c2 B2 c4- | c4 z4 | z8 | z8 | %423
 c8 | c4 d4- | d2 cB c4 | d8 | d4 c2 d2- | dcBA B4 | A4 z4 | z4 z4 | z4 c4- | c4 A2 GE | G4 F4- | %434
 F4 z2 C2 | D2 E2 F4 | FGAB c2 d2 | A2 c2 d2 e2 | A4 z2 A2- | A GFE F2 D2 | A8 ||[M:2/2] D8 | %442
 D4 C4 | F8 | F4 G4 | A3 Bcd c2- | c2 BA B4 | A8 | z4 A3 B | c8- | c8 | c4 f4- | f4 f4 | f8 | %454
 e4 d4 | z2 A3 B c2 | d2 A3 G A2 | F4 z4 | D4 E4 | F8 | G8 | A4 G2 A2- | A2 GF E3 F | G3 A B2 c2- | %464
 cB A4 ^G2 | A8- | A8 | A8 | z8 | z4 c4 | B2 c4 BA | G3 A B2 c2- | cB/A/ A4 G2 | c4 B2 c2- | %474
 cB A4 G2 | A8- | A8 | A4 B4 | c8 | d4 f4 | e4 c4- | c8 | c4 c4 | A4 B4 | c4 B2 c2- | c2 BA B4 | %486
 A8 | z8 | z8 | z4 A4 | A4 d4- | d2 c2 B2 A2 | G2 c4 B2 | c8- | c8 | z8 | z8 | z8 | A8 | c8 | %500
 z4 C4 | D2 E2 F3 G | AB c3 B c2 | d3 c A2 G2 | A4 _B4 | A8 | F6 ED | A8 |] %508
V:3
 A8 | A4 A4 | c8- | c4 d4 | e6 d2 | c2 B2 A4 | B8 | A8 | z4 A4 | A4 F4 | G8 | G8 | F4 D4 | E8 | %14
 D8 | z8 | F8 | G8- | G4 G4 | G8 | F8 | D4 F4- | F4 G4 | A8- | A4 A4 | B8 | A4 F4 | G8 | %28
 !fermata!F8- | F8 | A4 A2 A2- | A2 G2 G4- | G4 z2 G2 | _B4 A4 | G8 | F2 ED E4 | D8 | z8 | z4 F4 | %39
 E2 C2 D4 | C4 F4- | F4 G4 | A6 B2 | c4 A4 | B8 | A8- | A8 | A8 | z8 | z8 | c8 | A6 GF | G4 G4 | %53
 F8- | F8 | E4 D4 | E8 | D8 ||[M:2/2] A8 | A4 A4- | A4 A4 | G4 GABc | d2 c4 B2 | c8 | c4 c2 c2 | %65
 c2 c2 d4 | dcBA B4 | A4 G4 | A8 | F8 | D4 E4- | E4 F4 | G4 E4 | D4 z4 | DEFG A2 _B2- | BAGF G4 | %76
 A4 z4 | z4 z4 | z4 G4 | G4 F4 | E3 F G2 A2- | AGFE F2 G2- | GFED E4 | D4 z4 | D4 F4- | F4 G4 | %86
 A6 B2 | A2 GF G4 | F8 | z8 | z8 | z8 | z8 | A6 A2 | A4 A4 | z4 A4 | A4 F4 | G8 | A6 G2 | %99
 F2 E2 D4 | F4 G4 | E8 | D8 ||[M:2/2] A8 | A4 A4 | G8 | G4 c4- | c2 BA B4 | c8 | z8 | c4 c2 c2- | %111
 cBAG A2 G2- | G2 F2 E4 | D8 | z8 | z8 | D4 E3 F | G2 A3 G c2- | c2 B2 c4- | c4 z4 | c3 B c2 d2- | %121
 dcBA B4 | A4 z4 | A4 B2 B2 | G6 c2- | cA B2 c4 | z8 | z4 c4 | c2 c4 c2 | c2 c2 c4 | dcBA G4- | %131
 G4 c4 | c2 c2 c2 B2- | BA A4 ^G2 | A4 z2 A2- | AGFE F2 G2- | GF D2 E4 | D4 F4 | F4 F4 | G8 | z8 | %141
 z8 | A4 G2 A2- | A2 GFEF GA | B4 B4 | c8- | c4 c4 | d3 cBA c2- | cB A4 G2 | A8- | A8 | A8 || %152
[M:2/2] F8 | E4 E4 | D8 | z4 G4 | A8 | G6 c2- | c2 BA B4 | c8 | z4 c4 | c6 c2- | cBAG F4 | z4 c4 | %164
 c2 c4 c2 | A4 z2 A2- | A2 GF G4 | F2 c3 B AG | A4 G2 c2 | BAGF G4 | F8 | z8 | z4 c4- | c4 B4 | %174
 A2 d3 c c2- | c2 B2 c4 | z8 | z8 | c4 c2 c2 | c2 c2 A4 | AGFE F2 G2- | GFED E4 | D8 | z8 | z4 G4 | %185
 G4 G4 | F2 ED C4- | C4 F4- | F2 E2 F4 | G8 | F4 z4 | F4 A4 | A4 G3 A | BA c3 BAG | A2 G3 FED | %195
 C3 D E2 F2- | F2 G2 E4 | D8- | D8 ||[M:2/2] z8 | D4 F4- | F2 F2 F4 | F6 F2 | F4 F4 | z4 D4- | %205
 D2 D2 C4 | G8 | z8 | z8 | z2 A3 GFE | F4 F2 G2- | GFED E4 | D8 | z2 A4 A2- | AGFE F4 | G4 z2 G2 | %216
 G2 G2 A4- | A4 B4 | c8 | z2 A3 GFE | F4 F4 | G3 A _B2 A2 | F2 G2 E4 | D8 | z8 | z8 | z4 A4 | B8 | %228
 A2 GF G4- | G4 z4 | A4 A2 A2 | A2 B2 c4- | c4 B4 | z2 e3 dcB | c2 B3 A A2- | A2 ^G2 A4 | %236
 z2 A4 G2 | F2 G2 E4 | D4 A4 | A4 GABc | d2 c4 B2 | c8 | F4 G4 | A8 | z8 | c8 | A4 F4 | G4 G4 | %248
 A4 AGFE | D2 F2 E4 | D4 z4 | z4 A4 | G2 F2 G4 | F2 E2 F4 | E2 F2 E4 | D2 C2 D2 E2 | F6 ED | %257
 E4 E4 | D8- | D8 ||[M:2/2] A8 | c4 c4 | d8 | c6 BA | B4 B4 | A8 | z8 | z4 d4 | e6 dc | c2 BA G4 | %270
 z4 z2 c2- | c2 c3 BAG | A4 G4 | z8 | z8 | z4 z2 A2- | A2 G2 A2 B2 | G8 | z8 | z8 | z4 c4 | %281
 c2 c4 c2 | A8 | G4 F2 ED | C4 D4 | E3 F G2 A2- | AGFE F2 G2- | GFED E4 | D8 | z8 | z4 c4- | %291
 c2 c2 A2 GF | G4 F4 | z8 | z4 c4 | z2 c2 c2 BA | B4 z2 B2 | B2 B2 c4 | cBAG A2 B2 | c2 d2 B4 | %300
 A4 G4 | c8 | z8 | z8 | z4 G4 | A3 B c2 B2- | BA A4 ^G2 | A4 z4 | A4 A4 | A2 A2 G4- | G4 c4- | %311
 c4 A4 | F2 G4 F2 | G2 A2 F4 | E4 D4 | E8 | D8- | D8 ||[M:2/2] E8 | G4 G4 | A8 | z8 | c8- | c4 c4 | %324
 A4 A4 | G8- | G8 | z4 G4- | G4 G4 | A8 | B8- | B8 | z4 c4 | c8 | z4 B4 | B8 | z2 c3 def | %337
 e2 d3 cBA | B4 A4- | A4 z4 | z4 c4- | c2 c2 d4- | d4 z4 | z8 | z8 | G4 G4 | G4 A3 B | %347
 c2 B3 A A2- | A2 ^G2 A4 | A4 A4 | F4 G4- | G4 A4- | A2 A2 A4 | B4 A4- | A8 | A4 z4 | z8 | z8 | %358
 A4 G2 A2- | A2 GF E4 | D8 | z8 | G4 G4 | G4 F2 ED | C8 | z2 c3 BAG | F2 c2 A2 GF | G4 G4 | F8 | %369
 A4 c4- | c4 A4 | F4 z2 c2- | cBAG A4 | G8- | G8 | G8 | z2 A3 G FE | F2 G2 E4 | D8- | D8 || %380
[M:2/2] z4 D4 | F8 | G8 | A8- | A8 | z4 A4 | A4 A4 | B8 | e6 d2 | c2 B2 A4 | B8 | A8 | z4 A4 | %393
 A4 F4 | G4 GFED | C4 F2 E2 | F2 G2 E4 | D8 | z2 A2 A2 B2 | c4 A2 F2 | G4 F4- | F4 z4 | z8 | z8 | %404
 z2 G2 G2 G2 | A3 B c2 B2- | BA A4 ^G2 | A4 z2 A2- | AGFE D2 E2 | F2 G2 E4 | D8 | z4 G4 | A4 B4 | %413
 c6 BA | A2 GF E2 F2 | G4 G4 | F8 | z8 | z8 | z4 z2 G2 | G2 G2 A3 B | c2 B3 A A2- | A2 ^G2 A4- | %423
 A4 z4 | A4 A2 B2- | BAGF G4 | A4 z2 D2- | DEFG A2 G2- | G2 F2 D2 E2 | FGAB c2 B2- | BA A4 ^G2 | %431
 A8 | z4 c4- | c4 A4 | F4 G4 | G4 A4- | A4 z2 A2- | AGFE F2 G2 | D2 F2 E4 | D8- | D8 ||[M:2/2] z8 | %442
 z8 | z8 | z8 | A8 | A4 G4 | c8 | c4 d4 | e8- | e8 | c8 | d8 | A4 c4- | c4 B4 | A4 F2 G2- | %456
 GD F2 E4 | D8 | z4 G4 | A4 B4 | c8 | c4 B2 c2- | c2 BA G4 | c4 z4 | z8 | z8 | z8 | z8 | %468
 A4 G2 A2- | A2 GF E4 | z8 | G4 F2 G2- | G2 FE D4 | A4 G2 A2- | A2 GF E4 | D8 | z4 F4 | F4 F4 | %478
 G6 A2 | B4 c4- | c2 BA G4 | z2 F4 E2 | F2 A2 G4 | F8 | z8 | z8 | z4 F4 | F4 G4 | A3 B c2 d2- | %489
 d2 cB c4 | d4 d4 | z8 | z8 | z4 G4- | G4 A4 | B4 c2 B2- | BA A4 ^G2 | A8 | F8 | G8- | G8 | %501
 G4 A4- | A2 G2 F2 E2 | D6 E2 | F4 G4 | E8 | D8- | D8 |] %508
V:4
 D,8 | D,4 D,4 | C,6 B,,2 | A,,4 D,4 | C,6 D,2 | E,4 F,4 | E,8 | A,,8 | z4 D,4 | D,4 D,4 | C,8 | %11
 G,,4 C,4 | D,4 _B,,4 | A,,8 | z4 A,4 | A,3 G, F,2 E,2 | D,4 D,4 | C,8- | C,4 C,4 | G,,4 G,,4 | %20
 D,4 D,4 | _B,,4 B,,4 | _B,,8 | A,,8- | A,,8 | G,,8 | A,,4 D,4 | C,8 | D,3 C, _B,,3 A,,/G,,/ | %29
 !fermata!F,,8 | F,4 F,2 F,2- | F,2 C,2 C,4- | C,4 C,4 | G,4 D,4 | G,,2 C,3 B,, C,2 | %35
 D,2 B,,2 A,,4 | z4 F,4 | E,2 C,2 D,4 | C,4 F,,4 | C,4 G,,4 | A,,8 | B,,8 | A,,4 D,4 | C,4 D,4 | %44
 G,,8 | A,,8- | A,,8 | F,8 | E,6 D,C, | D,4 D,4 | C,8 | D,8 | C,8 | D,3 C, B,,2 A,,G,, | %54
 F,,6 G,,2 | A,,4 B,,4 | A,,8 | D,8 ||[M:2/2] D,8 | D,4 F,4- | F,4 F,4 | C,4 E,4 | D,8 | C,8 | %64
 z4 F,4 | F,2 F,2 F,2 F,2 | G,8 | F,2 E,D, E,4 | D,8 | z2 D,3 C,_B,,A,, | _B,,4 A,,4- | A,,4 z4 | %72
 G,,4 C,4 | z4 E,4 | F,4 F,2 G,2- | G,F,_E,D, E,4 | D,3 E, F,2 G,2- | G,F,E,D, C,2 E,2 | D,4 C,4- | %79
 C,4 F,,4 | C,4 C,4 | A,,2 D,4 C,2- | C,D, B,,2 A,,4 | z8 | z8 | z8 | z8 | z8 | z4 F,4 | F,8 | %90
 G,4 D,4 | E,2 F,3 E,D,C, | D,4 C,4 | F,6 F,2 | F,4 F,4 | z4 F,4 | D,4 D,4 | C,6 B,,2 | %98
 A,,2 G,,2 F,,4 | F,,4 G,,4 | A,,4 G,,4 | A,,8 | D,8 ||[M:2/2] z8 | z8 | E,8 | E,4 E,4 | D,8 | %108
 C,4 F,4- | F,2 E,D, E,4 | F,8 | F,4 F,2 C,2- | C,2 C,2 A,,4 | z4 F,4- | F,4 E,4- | %115
 E,2 D,3 C,B,,A,, | B,,4 A,,4 | z8 | z4 C,4- | C,4 D,4 | C,3 D, E,2 D,2 | E,8 | A,,4 z4 | z4 D,4 | %124
 E,2 E,2 C,4 | D,4 C,4 | z8 | z8 | F,4 F,2 F,2- | F,2 F,2 F,2 F,2 | G,4 G,F,E,D, | C,8 | %132
 E,4 E,2 D,2- | D,2 C,2 B,,4 | A,,4 D,4 | z2 D,4 C,2- | C,D, B,,2 A,,4 | z4 D,4 | D,4 D,4 | C,8 | %140
 F,4 E,2 F,2- | F,2 E,D, C,4 | z8 | z4 z2 E,2- | E,2 D,C, B,,4 | A,,4 z2 A,2- | A,2 G,F, E,4 | %147
 D,4 z2 E,2- | E,2 D,C, B,,4 | A,,4 z2 A,,2 | C,2 D,2 A,,4 | D,8 ||[M:2/2] z8 | z8 | F,8 | %155
 E,4 E,4 | D,4 F,4 | E,4 C,4 | D,8 | C,8 | z4 C,4 | C,4 C,3 B,, | C,2 D,4 C,B,, | A,,8 | %164
 F,4 F,2 F,2- | F,2 F,2 D,4 | D,4 C,4 | F,4 F,4 | F,4 E,4 | D,4 C,4 | z4 F,4- | F,4 E,4 | D,4 F,4 | %173
 C,D,E,F, G,2 D,2 | F,4 F,E,D,C, | D,4 C,4 | z8 | z8 | z4 F,4 | F,2 F,2 F,2 F,2 | D,4 z2 C,2- | %181
 C,D, B,,2 A,,4 | z4 z2 F,2- | F,2 F,3 E,D,C, | D,4 C,4 | C,8 | D,4 E,3 F, | G,2 A,3 G,F,E, | %188
 D,2 C,2 D,4 | C,8 | z2 D,3 C, A,,2 | B,,3 A,, F,,4 | F,,G,,A,,B,, C,4 | D,2 A,,2 C,4 | %194
 z2 C,3 D, E,2- | E,D,C,B,, A,,4- | A,,2 G,,2 A,,4 | D,8- | D,8 ||[M:2/2] D,4 F,4- | %200
 F,2 _B,,2 B,,4- | B,,4 _B,,4 | _B,,6 F,,2 | F,,8 | z4 F,4- | F,2 F,2 G,4 | C,8 | E,4 E,2 D,2- | %208
 D,C,B,,A,, B,,4 | A,,8 | z2 D,4 C,2- | C,D, B,,2 A,,4 | z2 A,4 A,2- | A,G,F,E, D,2 F,2- | %214
 F,E,D,C, D,4 | C,8 | C,4 z2 F,2 | F,2 F,2 G,4 | C,4 F,4- | F,4 F,4 | D,4 D,4 | C,4 z2 D,2- | %222
 D,2 G,,2 A,,4 | z8 | F,4 F,4 | G,8 | D,8 | z8 | z4 C,4 | C,2 C,2 C,2 C,2 | F,8 | D,4 C,2 A,,2 | %232
 C,3 D, E,4- | E,4 z2 A,,2- | A,,2 B,,2 C,2 D,2 | B,,4 A,,4 | F,,3 G,,A,,B,, C,2 | D,2 G,,2 A,,4 | %238
 z4 F,4- | F,4 E,4 | D,8 | C,4 F,4- | F,2 E,D, E,2 E,2 | D,8 | z4 E,4 | F,4 C,4 | D,4 D,4 | %247
 C,4 C,B,,A,,G,, | F,,8 | z8 | F,4 C,4 | F,2 E,2 D,4 | E,2 D,2 C,4 | D,2 C,2 _B,,4 | %254
 C,2 _B,,2 A,,4 | _B,,2 A,,2 G,,4 | F,,3 G,, A,,2 _B,,2 | A,,2 G,,2 A,,4 | D,8- | D,8 || %260
[M:2/2] F,8 | E,4 E,4 | D,6 C,B,, | A,,8 | z8 | A,,8 | C,8 | D,8 | C,8- | C,8 | z4 C,4 | C,8 | %272
 A,,4 z2 C,2- | C,2 D,2 E,3 D, | C,2 D,2 B,,4 | A,,3 B,, C,2 D,2- | D,2 E,2 F,2 G,2 | C,4 C,4 | %278
 F,4 F,2 F,2- | F,2 F,2 D,4- | D,4 C,4 | F,8 | z8 | C,4 D,2 F,2 | E,2 D,C, B,,4 | A,,4 z4 | %286
 z2 D,4 C,2 | B,,4 A,,4 | z4 F,4- | F,2 F,2 E,2 D,C, | D,4 C,4 | z8 | z4 D,4- | %293
 D,2 D,2 C,2 B,,A,, | B,,4 z4 | z8 | E,6 E,2 | E,2 E,2 C,4 | z2 F,4 G,2 | A,2 D,2 E,4 | A,,4 C,4 | %301
 C,8 | C,4 F,4- | F,2 F,2 E,2 D,C, | D,4 C,4 | z8 | z8 | z4 D,4- | D,2 D,2 D,2 D,2 | C,6 B,,A,, | %310
 G,,4 F,,4 | z2 F,3 E,D,C, | D,2 C,2 D,4 | C,4 D,4 | A,,4 _B,,4 | A,,8 | D,8- | D,8 ||[M:2/2] C,8 | %319
 B,,4 B,,4 | A,,8 | z8 | F,8 | F,4 F,4 | F,8 | C,8 | C,8 | z4 C,4- | C,4 C,4 | A,,8 | G,,8- | %331
 G,,8 | z4 C,4 | C,8 | z4 E,4 | E,8 | C,3 D,E,F, E,2- | E,2 G,3 A, F,2 | E,4 A,,4- | A,,4 F,4- | %340
 F,2 F,2 F,4 | F,4 D,4- | D,4 E,4 | F,4 G,3 F, | E,2 D,C, D,4 | C,8 | z8 | z8 | z4 F,4 | %349
 F,2 F,3 E,D,C, | D,4 C,4- | C,4 A,,4- | A,,2 A,,2 A,,4 | G,,4 D,4 | C,2 D,4 C,B,, | A,,8 | %356
 E,4 D,2 E,2- | E,2 D,C, B,,4 | A,,3 B,, C,2 F,,2- | F,,2 G,,2 A,,4 | z2 D,3 E, F,2- | %361
 F,E,D,C, D,4 | C,4 G,,4 | z2 C,2 D,4 | E,3 F, G,2 A,2- | A,G, F,2 E,2 F,2- | F,E, C,2 D,4 | C,8 | %368
 z8 | F,8 | F,8 | F,4 F,4 | F,8 | C,4 B,,2 C,2- | C,2 B,,A,, G,,4 | C,8 | A,,3 G,, F,,3 G,, | %377
 A,,2 G,,2 A,,4 | D,8- | D,8 ||[M:2/2] z4 D,4 | D,8 | C,8 | F,,8- | F,,8 | F,8 | D,4 F,4 | %387
 E,6 D,2 | C,2 B,,2 A,,4 | E,4 F,4 | E,8 | A,,8 | z4 D,4 | D,4 D,4 | C,6 C,2- | %395
 C,B,,A,,G,, F,,2 C,2 | D,2 G,,2 A,,4 | z8 | z8 | z8 | z4 z2 D,2 | D,2 D,2 E,4 | F,8 | %403
 E,2 D,C, D,4 | C,4 z2 C,2 | C,2 D,2 E,3 D, | C,2 D,2 B,,4 | A,,8 | D,6 C,2 | D,2 G,,2 A,,4 | %410
 z2 A,3 G,F,E, | F,4 E,4 | D,8 | C,8 | z8 | C,4 C,4 | F,,4 z2 F,2 | F,2 F,2 G,3 F, | %418
 E,D, F,2 C,2 E,2 | D,4 C,4- | C,4 z4 | z4 z4 | z4 z4 | z4 F,4 | F,6 E,D, | E,4 E,4 | D,8 | z8 | %428
 z8 | D,4 C,2 D,2 | D,C,B,,A,, B,,4 | A,,8 | z8 | C,4 D,2 D,2 | D,2 D,2 C,2 B,,A,, | G,,4 F,,4 | %436
 z2 F,3 E,D,C, | D,2 A,,2 D,2 C,2 | D,4 A,,4 | D,8- | D,8 ||[M:2/2][K:bass] z8 | z8 | D,8 | %444
 D,4 C,4 | F,8 | F,4 G,4 | A,4 z2 A,2- | A,2 G,2 F,2 E,D, | C,8- | C,8 | F,8 | D,6 E,2 | F,8 | %454
 C,4 G,4 | D,2 F,3 E,/D,/ C,2 | B,,2 D,2 A,,4 | z4 F,4- | F,4 E,4 | D,8 | C,8 | z8 | z8 | %463
 C,4 D,2 C,2- | C,2 D,2 E,4 | A,,4 D,4 | C,2 D,4 C,B,, | A,,8 | F,4 E,2 F,2- | F,2 E,D, C,4 | z8 | %471
 E,4 D,2 E,2- | E,2 D,C, B,,4 | A,,4 z4 | z8 | F,4 F,4 | F,4 D,4- | D,4 D,4 | C,6 B,,A,, | %479
 G,,4 F,,4 | C,8 | z8 | z4 C,4 | D,4 D,4 | E,3 F, G,2 A,2- | A,2 ^G,^F, G,4 | A,4 A,4 | z8 | z8 | %489
 z8 | D,4 D,4 | G,6 F,2 | E,2 D,C, D,2 D,2 | C,8- | C,8 | z8 | z8 | z8 | D,8 | C,8 | %500
 B,,2 C,4 B,,A,, | G,,4 F,,4 | F,3 G, A,4- | A,2 G,2 F,2 E,2 | D,4 G,,4 | A,,8 | D,8- | D,8 |] %508

